third_party/noto/noto_2/emoji_u1faa7.svg

<svg enable-background="new 0 0 128 128" version="1.1" viewBox="0 0 128 128" xmlns="http://www.w3.org/2000/svg"><path d="M76.1,124.17H59.47V4h11.96c0.69,0,1.36,0.29,1.83,0.8l2.45,2.65c0.25,0.27,0.39,0.62,0.39,0.99  V124.17z" fill="#A3673E"/><path d="M72.53,124.17H55.9V5.36C55.9,4.61,56.51,4,57.26,4h13.91c0.75,0,1.36,0.61,1.36,1.36V124.17z" fill="#BF855E"/><linearGradient id="e" x1="66" x2="66" y1="81.626" y2="96.647" gradientUnits="userSpaceOnUse"><stop stop-color="#424242" offset=".1668"/><stop stop-color="#424242" stop-opacity="0" offset=".9436"/></linearGradient><polygon points="76.1 83 55.9 83.02 55.9 98.02 76.1 98" fill="url(#e)"/><linearGradient id="d" x1="66" x2="66" y1=".0069061" y2="13.477" gradientTransform="matrix(-1 0 0 -1 132 23.021)" gradientUnits="userSpaceOnUse"><stop stop-color="#424242" offset=".2317"/><stop stop-color="#424242" stop-opacity="0" offset=".9434"/></linearGradient><polygon points="55.9 22.02 76.1 22 76.1 7 55.9 7.02" fill="url(#d)"/><linearGradient id="c" x1="63.5" x2="63.5" y1="90.336" y2="28.308" gradientUnits="userSpaceOnUse"><stop stop-color="#9E9E9E" offset=".3731"/><stop stop-color="#BDBDBD" offset="1"/></linearGradient><path d="m108.54 89.63h-86.29c-0.35 0-0.69-0.09-0.99-0.26l-3.97-2.23c-0.52-0.29-0.85-0.85-0.85-1.45v-71.7c0-0.54 0.44-0.99 0.99-0.99h89.1c0.48 0 0.96 0.16 1.34 0.45l1.89 1.45c0.5 0.38 0.79 0.98 0.79 1.6v71.1c0.01 1.13-0.9 2.03-2.01 2.03z" fill="url(#c)"/><path d="m106.27 86.67h-88.82c-0.56 0-1.01-0.45-1.01-1.01v-71.65c0-0.56 0.45-1.01 1.01-1.01h88.82c0.56 0 1.01 0.45 1.01 1.01v71.65c0 0.56-0.45 1.01-1.01 1.01z" fill="#F5F5F5"/><g fill="none" stroke="#616161" stroke-linecap="round" stroke-miterlimit="10" stroke-width="9"><line x1="40.24" x2="83.28" y1="38.25" y2="38.25"/><line x1="40.72" x2="83.76" y1="60.75" y2="60.75"/></g><linearGradient id="b" x1="61.86" x2="61.86" y1="23.216" y2="-6.0208" gradientUnits="userSpaceOnUse"><stop stop-color="#F5F5F5" offset=".2015"/><stop stop-color="#BDBDBD" offset="1"/></linearGradient><path d="m106.31 26.56h-88.9c-0.54 0-0.97-0.44-0.97-0.97v-11.62c0-0.54 0.44-0.97 0.97-0.97h88.89c0.54 0 0.97 0.44 0.97 0.97v11.62c0.01 0.54-0.43 0.97-0.96 0.97z" fill="url(#b)"/><linearGradient id="a" x1="49.86" x2="49.86" y1="34.691" y2="5.4544" gradientTransform="matrix(0 -1 1 0 .0256 99.695)" gradientUnits="userSpaceOnUse"><stop stop-color="#BDBDBD" stop-opacity="0" offset=".5075"/><stop stop-color="#BDBDBD" offset="1"/></linearGradient><path d="m30.01 13.99v71.69c0 0.55-0.44 0.99-0.99 0.99h-11.59c-0.55 0-0.99-0.44-0.99-0.99v-71.69c0-0.55 0.44-0.99 0.99-0.99h11.59c0.54 0 0.99 0.44 0.99 0.99z" fill="url(#a)"/></svg>

<?xml version="1.0" encoding="utf-8"?>
<!-- Generator: Adobe Illustrator 24.0.3, SVG Export Plug-In . SVG Version: 6.00 Build 0)  -->
<svg version="1.1" id="Layer_3" xmlns="http://www.w3.org/2000/svg" xmlns:xlink="http://www.w3.org/1999/xlink" x="0px" y="0px"
	 viewBox="0 0 128 128" style="enable-background:new 0 0 128 128;" xml:space="preserve">
<path style="fill:#A3673E;" d="M76.1,124.17H59.47V4h11.96c0.69,0,1.36,0.29,1.83,0.8l2.45,2.65c0.25,0.27,0.39,0.62,0.39,0.99
	V124.17z"/>
<path style="fill:#BF855E;" d="M72.53,124.17H55.9V5.36C55.9,4.61,56.51,4,57.26,4h13.91c0.75,0,1.36,0.61,1.36,1.36V124.17z"/>
<linearGradient id="SVGID_1_" gradientUnits="userSpaceOnUse" x1="66" y1="81.6261" x2="66" y2="96.6469">
	<stop  offset="0.1668" style="stop-color:#424242"/>
	<stop  offset="0.9436" style="stop-color:#424242;stop-opacity:0"/>
</linearGradient>
<polygon style="fill:url(#SVGID_1_);" points="76.1,83 55.9,83.02 55.9,98.02 76.1,98 "/>
<linearGradient id="SVGID_2_" gradientUnits="userSpaceOnUse" x1="66" y1="6.906071e-03" x2="66" y2="13.4766" gradientTransform="matrix(-1 0 0 -1 132 23.0208)">
	<stop  offset="0.2317" style="stop-color:#424242"/>
	<stop  offset="0.9434" style="stop-color:#424242;stop-opacity:0"/>
</linearGradient>
<polygon style="fill:url(#SVGID_2_);" points="55.9,22.02 76.1,22 76.1,7 55.9,7.02 "/>
<g>
	<linearGradient id="SVGID_3_" gradientUnits="userSpaceOnUse" x1="63.5" y1="90.3355" x2="63.5" y2="28.3077">
		<stop  offset="0.3731" style="stop-color:#9E9E9E"/>
		<stop  offset="1" style="stop-color:#BDBDBD"/>
	</linearGradient>
	<path style="fill:url(#SVGID_3_);" d="M108.54,89.63H22.25c-0.35,0-0.69-0.09-0.99-0.26l-3.97-2.23c-0.52-0.29-0.85-0.85-0.85-1.45
		V13.99c0-0.54,0.44-0.99,0.99-0.99h89.1c0.48,0,0.96,0.16,1.34,0.45l1.89,1.45c0.5,0.38,0.79,0.98,0.79,1.6v71.1
		C110.56,88.73,109.65,89.63,108.54,89.63z"/>
	<path style="fill:#F5F5F5;" d="M106.27,86.67H17.45c-0.56,0-1.01-0.45-1.01-1.01V14.01c0-0.56,0.45-1.01,1.01-1.01h88.82
		c0.56,0,1.01,0.45,1.01,1.01v71.65C107.28,86.22,106.83,86.67,106.27,86.67z"/>
	<g>
		
			<line style="fill:none;stroke:#616161;stroke-width:9;stroke-linecap:round;stroke-miterlimit:10;" x1="40.24" y1="38.25" x2="83.28" y2="38.25"/>
		
			<line style="fill:none;stroke:#616161;stroke-width:9;stroke-linecap:round;stroke-miterlimit:10;" x1="40.72" y1="60.75" x2="83.76" y2="60.75"/>
	</g>
</g>
<linearGradient id="SVGID_4_" gradientUnits="userSpaceOnUse" x1="61.8605" y1="23.2161" x2="61.8605" y2="-6.0208">
	<stop  offset="0.2015" style="stop-color:#F5F5F5"/>
	<stop  offset="1" style="stop-color:#BDBDBD"/>
</linearGradient>
<path style="fill:url(#SVGID_4_);" d="M106.31,26.56H17.41c-0.54,0-0.97-0.44-0.97-0.97V13.97c0-0.54,0.44-0.97,0.97-0.97h88.89
	c0.54,0,0.97,0.44,0.97,0.97v11.62C107.28,26.13,106.84,26.56,106.31,26.56z"/>
<linearGradient id="SVGID_5_" gradientUnits="userSpaceOnUse" x1="49.8605" y1="34.6914" x2="49.8605" y2="5.4544" gradientTransform="matrix(0 -1 1 0 0.0256 99.6954)">
	<stop  offset="0.5075" style="stop-color:#BDBDBD;stop-opacity:0"/>
	<stop  offset="1" style="stop-color:#BDBDBD"/>
</linearGradient>
<path style="fill:url(#SVGID_5_);" d="M30.01,13.99v71.69c0,0.55-0.44,0.99-0.99,0.99H17.43c-0.55,0-0.99-0.44-0.99-0.99V13.99
	c0-0.55,0.44-0.99,0.99-0.99h11.59C29.56,13,30.01,13.44,30.01,13.99z"/>
</svg>
